X:10
T:Art O'Keefe's
S:Amelia Lindsay-Kaufman
R:slide
M:12/8
L:1/8
K:Emin
B |: cBA BAG E2A A2c | B3 GBc dBA GAB |
cBA BAG E2A A2g | edc BAG E2A A2B ::
c3 d3 ede g3 | eaf gfe dBA GAB |
c3 d3 edc Bcd | edc BAG E2A A2B :|
